X:1
T:Diligence
T:Diligence
T:Public  domain
Z:Public  domain
%%score 1 2
L:1/8
Q:1/4=120
M:4/4
K:F
V:1 treble nm="Unnamed-000"
V:2 bass nm="Unnamed-001"
V:1
 [Fc]2 [FA]3/2 [FB]/ [Fc]2 [Fc]2 | [Fd]4 [Fc]4 | [CF]2 [CF]3/2 [CF]/ [DF]2 [EG]2 | [FA]8 | %4
 [Fc]2 [FA]3/2 [FB]/ [Fc]2 [Fc]2 | [Fd]4 [Fc]4 | F2 [FG]2 [FA]2 [EG]2 | [CF]8 | %8
 [EG]2 [EG]3/2 [EG]/ [EG]2 [FA]2 | [EBFA]3 z4 x | [FA]2 [FA]3/2 [FA]/ [FA]2 [F=B]2 | [Ec]8 | %12
 [Fc]2 [FA]3/2 [FB]/ [Fc]2 [Fc]2 | [Fd]4 [Fc]4 | F2 [FG]2 [FA]2 [EG]2 | [CF]8 |] %16
V:2
 [F,A,]2 [F,CG,C]3/2 z2 [F,A,]2 x/ | [B,,B,]2 D,2 [F,A,]4 | [F,A,]2 [F,A,F,A,]3/2 z2 [C,C]2 x/ | %3
 [F,C]8 | [F,A,]2 [F,CG,C]3/2 z2 [F,A,]2 x/ | [B,,B,]2 D,2 [F,A,]4 | [A,C]2 [B,D]2 C2 [C,B,]2 | %7
 [F,A,]8 | [C,C]2 [C,CC,C]3/2 z2 [A,C]2 x/ | [G,C]3 F, [C,C]4 | [F,C]2 [F,CF,C]3/2 z2 [D,G,]2 x/ | %11
 [C,G,]8 | [F,A,]2 [F,CF,B,]3/2 z2 [F,A,]2 x/ | [B,,B,]2 D,2 [F,A,]4 | [A,C]2 [B,D]2 C2 [B,,B,]2 | %15
 [F,A,]8 |] %16

